X:16818
T:The Harvest Moon
R:Reel
S:
H:
N:
D:Cherish The Ladies
Z:Adrian Scahill
M:4/4
L:1/8
K:G
(3Bcd|eAAG A2BA|GEE2 G2(3Bcd|eAAB cdeg|aege d2(3Bcd|\
eAAG A2BA|GEE2 G2(3Bcd|e2ae gedB|1 GBdB A2(3Bcd:|2 GBdB A3B||\
c3d egg2|eaaf g2fg|eAAB cdeg|aege d2ed|\
cBcd egg2|eaaf g2ed|c2BA GEDE|GABG A3B:||\
